X:37
T:Mill Mill O,The JClw.37
T:The Deadly Wars,aka JClw.37
M:4/4
L:1/8
Q:1/4=120
S:J.Clews MS,Stoke-upon-Tern,Shrops.1832
N:Probably a Scottish song tune.
N:similar to ‘Blue Eyed Stranger’
A:N. Shropshire
Z:Neil Brookes 2006
K:C
“^Andantino”c>d|e2G>AG3c|A>G Ac{e}d2 c>d|e2G2fedc|A3Bc2c>d|!
{d}e2G>AG3c|{B}A>G A>c{e}d2c>d|{cd}e2GG f>edc|A3Bc2:|!
|:z2G|cdefg3g|agfe{e}d3G|cdef g>a gf|e3{fede}fg2z2G|!
cdefg2fg|agfe{e}d2c>d|{cd}e2G2f>edc|A3Bc2:|

